X:1
T:Wee Willie Winkie
M:2/4
L:1/8
K:G
 G2 GB| d2 d2| e2 ee| d4| c2 cc| B2 B2| AA A2| G4| dd dd| c2 c2| BB BB|\
 A3 A| dd dd| cd ec| B2 AA| G4|

